X:48
T:Tumbling and Trampling. THO5.048
M:3/8
L:1/8
B:Thompson's Complete Collection of 200 Favourite Dances Vol.5
F:https://www.libraryofdance.org/manuals/1780c-Thompson-Compleat-5.pdf
Z:vmp. Peter Dunk 2024
Q:1/8=160
K:F
c|AFA|BGF|ECE|F2 c/B/|AFA|BGF|ECE|F2:|
|:c|faf|gbg|agf|edc|faf|gbg|ece|f2:|
W:
W:The 1st and 2nd Couple: hands across half round ./.
W:The same back again ./:
W:Lead down the middle :/.
W:Up again and cast off :/:

